src/assets/icons/months,simple,may-5.svg

<svg width="48" height="48" viewBox="0 0 48 48" fill="none" xmlns="http://www.w3.org/2000/svg">
<rect opacity="0.2" x="5" y="5" width="38" height="38" rx="4" fill="black"/>
<path d="M5 13C5 9.22876 5 7.34315 6.17157 6.17157C7.34315 5 9.22876 5 13 5H35C38.7712 5 40.6569 5 41.8284 6.17157C43 7.34315 43 9.22876 43 13V15H5V13Z" fill="black"/>
<path d="M6.50355 23.3636V35H8.88991V27.3977H8.98651L11.9979 34.9432H13.6229L16.6342 27.4261H16.7308V35H19.1172V23.3636H16.0831L12.8786 31.1818H12.7422L9.53764 23.3636H6.50355ZM23.1499 35L24.0135 32.3466H28.2124L29.076 35H31.7124L27.701 23.3636H24.5305L20.5135 35H23.1499ZM24.6385 30.4261L26.0703 26.0227H26.1612L27.593 30.4261H24.6385ZM31.2436 23.3636L35.4879 30.8864V35H37.9311V30.8864L42.1754 23.3636H39.4197L36.7663 28.375H36.6527L33.9993 23.3636H31.2436Z" fill="black"/>
</svg>

<svg xmlns="http://www.w3.org/2000/svg" width="48" height="48" fill="none" viewBox="0 0 48 48">
  <rect width="38" height="38" x="5" y="5" fill="#000" opacity=".2" rx="4"/>
  <path fill="#000" d="M5 13c0-3.771 0-5.657 1.172-6.828C7.343 5 9.229 5 13 5h22c3.771 0 5.657 0 6.828 1.172C43 7.343 43 9.229 43 13v2H5v-2zM6.504 23.364V35H8.89v-7.602h.097l3.01 7.545h1.626l3.011-7.517h.097V35h2.386V23.364h-3.034l-3.204 7.818h-.137l-3.204-7.818H6.504zM23.15 35l.864-2.653h4.198L29.076 35h2.636l-4.011-11.636h-3.17L20.514 35h2.636zm1.489-4.574l1.431-4.403h.091l1.432 4.403h-2.954zm6.605-7.062l4.244 7.522V35h2.443v-4.114l4.244-7.522H39.42l-2.654 5.011h-.113l-2.654-5.011h-2.755z"/>
</svg>
